X: 0
T: St Chad
Z: Public Domain
L: 1/4
M: 4/4
Q: 1/4=120
V: P1 name="Staff"
%%MIDI program 1 19
V: P2 name="Staff-2"
%%MIDI program 2 19
K: C
[V: P1] z2 [G,EG] [G,Cc] | [G,DB] [A,/D/A/]B,/ [G,CG] [G,CE] | [G,2B,2D2] [G,2C2E2] | [G,EG] [G,DG] [G,Cc] [G,DB] | [G,DA] [^F,/C/]A/ [G,2B,2G2] | [G,EG] [G,Cc] [G,DB] [A,/D/A/]B,/ | [G,CG] [G,CE] [G,2B,2D2] | [G,2C2E2] [CG] [CG] | [CF] [A,CD] [B,3/D3/] C/ [K: C]  | [M: 2/4]  C2 [K: C]  | [M: 4/4]  [CE] [^G,E] [A,E] B,/E/ | [CE] [CE] [CE] [B,E] | [CE] [^G,E] [A,E] B,/E/ | [CE] [DA] [B,2E2^G2] | [B,2G2] [G,EG] [G,Cc] | [G,DB] [A,/D/A/]B,/ [G,CG] [G,CE] | [G,2B,2D2] [G,2C2E2] | [CG] [CG] [CF] [A,CD] | [B,3/D3/] C/ C2|]
[V: P2] z2 C, E, |z F, E, C, | G,,2 C,2 | C, B,, E, B,, | D,3/ D,/ G,,2 | C, E,z F, | E, C, G,,2 | C,2 [^A,,E,] [A,,E,] | [A,,F,] F,, [G,,3/F,3/] [C,/E,/] [K: C]  | [M: 2/4]  [C,2E,2] [K: C]  | [M: 4/4]  [A,,E,] E,, ^F,, ^G,, | [A,,E,] C, E,2 | [A,,E,] E,, ^F,, ^G,, | [A,,E,] [F,,D,] [E,,2E,2] | [D,2F,2] C, E, |z F, E, C, | G,,2 C,2 | [^A,,E,] [A,,E,] [=A,,F,] F,, | [G,,3/F,3/] [C,/E,/] [C,2E,2]|]

